X:1
T:Title
%%score 1 { 2 | 3 }
L:1/8
Q:1/4=120
M:3/8
K:G
V:1 treble nm="MusicXML Part"
V:2 treble nm="MusicXML Part"
V:3 bass 
V:1
 G"^Neues   TWV 25, No. 39" F2 | GDF | G2 c | B2 A | BcA | %5
w: Et- was|neu * es|vor- zu-|tra- gen,|so * nicht|
"^Georg Philipp Telemann (1681–1767)""^Singe-, Spiel und Generalbaßübungen (1733/34)" GFG | dcB | %7
w: nach * dem|al * ten|
 A2 z | G F2 | GDF | G2 c | B2 A | BcA | GFG | dcB | A2 z | d ^c2 | dAB | F D/E/F/G/ | A2 z | %20
w: schmeckt,|will schon|man * chen|nie- der-|schla- gen,|dass * er|nicht * was|iun * ges|heckt.|Doch, was|soll * die|scla- ve * * *|rey,|
 A GF | B2 A | GAF | G F/G/E | A ^G2 | AE^G | AcB | c2 z | d c2 | BFG | c A2 | G3 |] %32
w: die so *|en- ge|gren * zen|se- tzet? * *|Ob es|alt * ist,|o * der|neu,|gnug, wenn's|nü- tzet und|er- ge-|tzet.|
V:2
 [GBd] [FAd]2 | [DGd]2 [Fcd] | [GBd]2 [Acd] | [GBd]2 [FAd] | [GBd][Gce][FAd] | [DGd]2 [DGd] | %6
 [DAd][Acd][GBd] | [FAd]2 z | [GBd] [FAd]2 | [DGd]2 [Fcd] | [GBd]2 [Acd] | [GBd]2 [FAd] | %12
 [GBd][Gce][FAd] | [DGd]2 [DGd] | [DAd][Acd][GBd] | [FAd]2 z | [FAd] [EA^c]2 | [DAd]2 [DGB] | %18
 [FAd]2 [FAd] | [FAd]2 [FAd] | [EAe]2 [FAd] | [GBd]2 [AB^d] | [GBe][Ace][FB^d] | [GBe]2 z | %24
 [Ace] [^GBe]2 | [Ace]2 [^Gde] | [Ace]2 [Bde] | [Ace] [EAc]2 | [DAd]2 [DAc] | [DGB][FAd][EGB] | %30
 [Gce] [FAd]2 | [DGB]3 |] %32
V:3
 G,,D,C, |"^6" B,,2"^6" A,, |"^6" B,,G,,"^6\n5"F,, | G,,"^6"B,,D, | G,C,D, |"^6" B,,A,,"^6"B,, | %6
"^6" F,,"^6\n5"F,G, | D,2 D,, | G,,D,C, |"^6" B,,2"^6" A,, |"^6" B,,G,,"^6\n5"F,, | G,,"^6"B,,D, | %12
 G,C,D, |"^6" B,,A,,"^6"B,, |"^6" F,,"^6\n5"F,G, | D,2 D,, | D,A,G, |"^6" F,2 G, | D,2 D,, | %19
 D,"^6"F,D, |"^6" ^C,2 D, | G,,G,"^6"F, | E,A,,B,, | E,2 z |"^6" C,E,D, |"^6" C,2"^6" B,, | %26
"^6" C,A,,"^6\n5"^G,, | A,,A,G, |"^6" F,2"^6\n5" F, | G,D,E, | C, D,2 | G,,3 |] %32

